X:50
T:Five Mile Chase (r)
B:NFID.068b
050five_m
S:JD
N:1:This is closer to "New Mown Meadows" than the "Five
Mile Chase" (aka "Four Hand Reel") that I know.
N:2:|~A2| replaces |(3AAA|.
N:3:I removed the anacrusis |ga| because it seems incorrect.
L:1/8
M:C
R:reel
Q:360
K:D
eA~A2 BGBd|egfd edBg|eA~A2 BGBc|d2ec dBAG|
eA~A2 BGBd|egfd edBa|g2bg faec|dfec dBAG:|
fdad BdAd|fafd cdeg|fdad BdAd|dfec dBAG|
fdad BdAd|fafd cdef|gbag faec|dfec dBAg:|

%%%

